Origami/64x64/apps/pumpa.svg

<svg width="64" height="64" version="1" xmlns="http://www.w3.org/2000/svg">
 <path d="m37.762156 7.0058857c-0.425964-0.0152-0.871926-0.00139-1.331886 0.05022-0.439962 0.04944-0.695942 0.222942-1.093906 0.849284-0.397966 0.626342-0.749936 1.650326-0.963918 2.7179863-0.429964 2.135318-0.367968 4.319474-0.367968 4.319474a2.0010286 1.9864263 0 0 1 -3.97166 0.39546c-0.05 1.028748-0.028 1.721594-0.028 1.721594a2.0010286 1.9864263 0 1 0 3.999658 -0.13184s-0.0614-2.184154 0.367148-4.319474c0.214262-1.06762 0.567412-2.091644 0.964758-2.7179863 0.397344-0.626362 0.653924-0.799732 1.093666-0.849144 3.681884-0.413842 6.358854 1.5897363 6.358854 1.5897363a2.0006286 1.9860293 0 0 0 2.945148 -2.5706803 2.0006286 1.9860293 0 0 1 -2.945148 0.585486s-2.047824-1.533892-5.026968-1.640142z" style="fill-rule:evenodd;opacity:.2"/>
 <path d="m25 12.001 7 4 7-4c11.634 0 21 9.4448 21 21.176v5.647c0 11.7318-9.366 21.176-21 21.176l-7-2-7 2c-11.634 0-21-9.444-21-21.176v-5.648c0-11.732 9.366-21.176 21-21.176z" style="fill:#f58411"/>
 <path d="m25 12c-11.634 0-21 9.443781-21 21.175781v1c0-11.732 9.366-21.175781 21-21.175781l7 4 7-4c11.634 0 21 9.443781 21 21.175781v-1c0-11.732-9.366-21.175781-21-21.175781l-7 4-7-4z" style="fill:#ffffff;opacity:.2"/>
 <path d="m32.004182 16.001768s-0.317336-9.491908 4.19122-10.003486c4.508554-0.511578 7.783694 2.000696 7.783694 2.000696" style="fill:none;stroke-linecap:round;stroke-linejoin:round;stroke-width:3.9965134;stroke:#4a2507"/>
 <path d="m4 38.824219v1c0 11.732 9.366 21.175781 21 21.175781l7-2 7 2c11.634 0 21-9.443781 21-21.175781v-1c0 11.732-9.366 21.175781-21 21.175781l-7-2-7 2c-11.634 0-21-9.443781-21-21.175781z" style="opacity:.2"/>
 <path d="m36.964844 3.9394531c-0.32231 0.01115-0.651525 0.0343657-0.986328 0.0722657-1.816928 0.2057999-3.215822 1.4072187-4.027344 2.6992187-0.81352 1.2918-1.228207 2.7292438-1.498047 4.0898435-0.541682 2.721-0.447266 5.265625-0.447266 5.265625a2.00002 2.0012 0 0 0 0.009766 0.121094c0.001572-0.880804 0.043369-2.406902 0.4375-4.386719 0.26984-1.3606 0.684527-2.7980435 1.498047-4.0898435 0.811522-1.292 2.210416-2.4934188 4.027344-2.6992187 0.669606-0.0758001 1.315957-0.0945125 1.933593-0.0703126 4.327446 0.1692 7.298829 2.46875 7.298829 2.46875a1.9996202 2.0008 0 0 1 0.722656 1.0917969 1.9996202 2.0008 0 0 0 -0.722656 -2.0917969s-2.971383-2.2995499-7.298829-2.46875c-0.308818-0.0121-0.624955-0.0131031-0.947265-0.0019531z" style="fill-rule:evenodd;fill:#ffffff;opacity:.2"/>
</svg>

<svg xmlns="http://www.w3.org/2000/svg" width="64" height="64" version="1">
 <path style="opacity:0.2;fill-rule:evenodd" d="m 37.762156,7.0058857 c -0.425964,-0.0152 -0.871926,-0.00139 -1.331886,0.05022 -0.439962,0.04944 -0.695942,0.222942 -1.093906,0.849284 -0.397966,0.626342 -0.749936,1.650326 -0.963918,2.7179863 -0.429964,2.135318 -0.367968,4.319474 -0.367968,4.319474 a 2.0010286,1.9864263 0 0 1 -3.97166,0.39546 c -0.05,1.028748 -0.028,1.721594 -0.028,1.721594 a 2.0010286,1.9864263 0 1 0 3.999658,-0.13184 c 0,0 -0.0614,-2.184154 0.367148,-4.319474 0.214262,-1.06762 0.567412,-2.091644 0.964758,-2.7179863 0.397344,-0.626362 0.653924,-0.799732 1.093666,-0.849144 3.681884,-0.413842 6.358854,1.5897363 6.358854,1.5897363 a 2.0006286,1.9860293 0 0 0 2.945148,-2.5706803 2.0006286,1.9860293 0 0 1 -2.945148,0.585486 c 0,0 -2.047824,-1.533892 -5.026968,-1.640142 z"/>
 <path style="fill:#f58411" d="m 25,12.001 7,4 7,-4 c 11.634,0 21,9.4448 21,21.176 l 0,5.647 C 60,50.5558 50.634,60 39,60 l -7,-2 -7,2 C 13.366,60 4,50.556 4,38.824 L 4,33.176 C 4,21.444 13.366,12 25,12 Z"/>
 <path style="opacity:0.2;fill:#ffffff" d="M 25 12 C 13.366 12 4 21.443781 4 33.175781 L 4 34.175781 C 4 22.443781 13.366 13 25 13 L 32 17 L 39 13 C 50.634 13 60 22.443781 60 34.175781 L 60 33.175781 C 60 21.443781 50.634 12 39 12 L 32 16 L 25 12 z"/>
 <path style="fill:none;stroke:#4a2507;stroke-width:3.99651337;stroke-linecap:round;stroke-linejoin:round" d="m 32.004182,16.001768 c 0,0 -0.317336,-9.491908 4.19122,-10.003486 4.508554,-0.511578 7.783694,2.000696 7.783694,2.000696"/>
 <path style="opacity:0.2" d="m 4,38.824219 0,1 C 4,51.556219 13.366,61 25,61 l 7,-2 7,2 c 11.634,0 21,-9.443781 21,-21.175781 l 0,-1 C 60,50.556219 50.634,60 39,60 l -7,-2 -7,2 C 13.366,60 4,50.556219 4,38.824219 Z"/>
 <path style="opacity:0.2;fill:#ffffff;fill-rule:evenodd" d="M 36.964844 3.9394531 C 36.642534 3.9506031 36.313319 3.9738188 35.978516 4.0117188 C 34.161588 4.2175187 32.762694 5.4189375 31.951172 6.7109375 C 31.137652 8.0027375 30.722965 9.4401813 30.453125 10.800781 C 29.911443 13.521781 30.005859 16.066406 30.005859 16.066406 A 2.00002 2.0012 0 0 0 30.015625 16.1875 C 30.017197 15.306696 30.058994 13.780598 30.453125 11.800781 C 30.722965 10.440181 31.137652 9.0027375 31.951172 7.7109375 C 32.762694 6.4189375 34.161588 5.2175187 35.978516 5.0117188 C 36.648122 4.9359187 37.294473 4.9172063 37.912109 4.9414062 C 42.239555 5.1106062 45.210938 7.4101562 45.210938 7.4101562 A 1.9996202 2.0008 0 0 1 45.933594 8.5019531 A 1.9996202 2.0008 0 0 0 45.210938 6.4101562 C 45.210938 6.4101562 42.239555 4.1106063 37.912109 3.9414062 C 37.603291 3.9293062 37.287154 3.9283031 36.964844 3.9394531 z"/>
</svg>
